src/assets/filled/CloudChange.svg

<svg width="24" height="24" viewBox="0 0 24 24"  xmlns="http://www.w3.org/2000/svg">
<path d="M8.11003 11.8498C5.29003 12.0498 5.30003 16.1498 8.11003 16.3498H14.78C15.59 16.3598 16.37 16.0498 16.97 15.5098C18.95 13.7798 17.89 10.3098 15.29 9.97976C14.36 4.33976 6.21003 6.47976 8.14003 11.8498" />
<path d="M9 22.75C4.73 22.75 1.25 19.27 1.25 15C1.25 14.59 1.59 14.25 2 14.25C2.41 14.25 2.75 14.59 2.75 15C2.75 17.96 4.81 20.44 7.58 21.09L7.31 20.64C7.1 20.28 7.21 19.82 7.57 19.61C7.92 19.4 8.39 19.51 8.6 19.87L9.65 21.62C9.79 21.85 9.79 22.14 9.66 22.37C9.52 22.6 9.27 22.75 9 22.75Z" />
<path d="M21.9999 9.75C21.5899 9.75 21.2499 9.41 21.2499 9C21.2499 6.04 19.1899 3.56 16.4199 2.91L16.6899 3.36C16.8999 3.72 16.7899 4.18 16.4299 4.39C16.0799 4.6 15.6099 4.49 15.3999 4.13L14.3499 2.38C14.2099 2.15 14.2099 1.86 14.3399 1.63C14.4799 1.4 14.7299 1.25 14.9999 1.25C19.2699 1.25 22.7499 4.73 22.7499 9C22.7499 9.41 22.4099 9.75 21.9999 9.75Z" />
</svg>

<?xml version="1.0" encoding="UTF-8"?>
<svg width="24" height="24" viewBox="0 0 24 24" xmlns="http://www.w3.org/2000/svg">
 <path d="m8.11 11.85c-2.82 0.2-2.81 4.3 0 4.5h6.67c0.81 0.01 1.59-0.3 2.19-0.84 1.98-1.73 0.92-5.2-1.68-5.53-0.93-5.64-9.08-3.5-7.15 1.87"/>
 <path d="m9 22.75c-4.27 0-7.75-3.48-7.75-7.75 0-0.41 0.34-0.75 0.75-0.75s0.75 0.34 0.75 0.75c0 2.96 2.06 5.44 4.83 6.09l-0.27-0.45c-0.21-0.36-0.1-0.82 0.26-1.03 0.35-0.21 0.82-0.1 1.03 0.26l1.05 1.75c0.14 0.23 0.14 0.52 0.01 0.75-0.14 0.23-0.39 0.38-0.66 0.38z"/>
 <path d="m22 9.75c-0.41 0-0.75-0.34-0.75-0.75 0-2.96-2.06-5.44-4.83-6.09l0.27 0.45c0.21 0.36 0.1 0.82-0.26 1.03-0.35 0.21-0.82 0.1-1.03-0.26l-1.05-1.75c-0.14-0.23-0.14-0.52-0.01-0.75 0.14-0.23 0.39-0.38 0.66-0.38 4.27 0 7.75 3.48 7.75 7.75 0 0.41-0.34 0.75-0.75 0.75z"/>
</svg>
